proprietary/assets/icons/computer-en-internet/televisie.svg

<svg height="64" viewBox="0 0 64 64" width="64" xmlns="http://www.w3.org/2000/svg"><path d="m0 0h64v64h-64z" fill="none"/><path d="m49 29h3v-10h-3c0 1-.6 1.7-2 1.7v2.3h2zm13-18h-60c-.6 0-1 .4-1 1v38c0 .6.4 1 1 1h24v2h-10c-.6 0-1 .4-1 1v1c0 .6.4 1 1 1h32c.6 0 1-.4 1-1v-1c0-.6-.4-1-1-1h-10v-2h24c.6 0 1-.4 1-1v-38c0-.6-.4-1-1-1zm-6 36h-48v-32h48zm3.5 1c-.8 0-1.5-.7-1.5-1.5s.7-1.5 1.5-1.5 1.5.7 1.5 1.5-.7 1.5-1.5 1.5zm-15-5.8c-.6-.6-1.8-1.2-3.1-1.8-1.7-.8-3.6-1.4-4.6-1.8-.4-.1-.6-.5-.7-.8-.1-.5-.2-1.1-.3-1.7 2.6-.1 4.7-.3 5.5-.6.2-.1.3-.2.2-.4-.5-1-1.7-4.1-1.9-5.8-.4-4-.4-11.3-6.4-9.5 0 0-3.8-2.2-7 1.5-2.2 2.6-1.7 6.1-1.8 8.1-.1 1.4-1.3 4.6-1.8 5.4-.1.2-.1.4.1.4.9.3 3.1.6 5.6.7-.1.6-.2 1.3-.3 1.8-.1.4-.3.7-.7.8-1 .3-2.9 1-4.6 1.8-1.3.6-2.5 1.2-3.1 1.8s-1.1 1.7-1.3 2.8h27.3c-.1-1-.5-2.1-1.1-2.7z"/></svg>

<?xml version="1.0" encoding="utf-8"?>
<!-- Generator: Adobe Illustrator 21.0.2, SVG Export Plug-In . SVG Version: 6.00 Build 0)  -->
<svg version="1.2" baseProfile="tiny" xmlns="http://www.w3.org/2000/svg" xmlns:xlink="http://www.w3.org/1999/xlink" x="0px"
	 y="0px" width="64px" height="64px" viewBox="0 0 64 64" xml:space="preserve">
<g id="Box">
	<rect fill="none" width="64" height="64"/>
</g>
<g id="Icon">
	<g>
		<path d="M49,29h3V19h-3c0,1-0.6,1.7-2,1.7V23h2V29z M62,11H2c-0.6,0-1,0.4-1,1v38c0,0.6,0.4,1,1,1h24v2H16c-0.6,0-1,0.4-1,1v1
			c0,0.6,0.4,1,1,1h32c0.6,0,1-0.4,1-1v-1c0-0.6-0.4-1-1-1H38v-2h24c0.6,0,1-0.4,1-1V12C63,11.4,62.6,11,62,11z M56,47H8V15h48V47z
			 M59.5,48c-0.8,0-1.5-0.7-1.5-1.5s0.7-1.5,1.5-1.5s1.5,0.7,1.5,1.5S60.3,48,59.5,48z M44.5,42.2c-0.6-0.6-1.8-1.2-3.1-1.8
			c-1.7-0.8-3.6-1.4-4.6-1.8c-0.4-0.1-0.6-0.5-0.7-0.8c-0.1-0.5-0.2-1.1-0.3-1.7c2.6-0.1,4.7-0.3,5.5-0.6c0.2-0.1,0.3-0.2,0.2-0.4
			c-0.5-1-1.7-4.1-1.9-5.8c-0.4-4-0.4-11.3-6.4-9.5c0,0-3.8-2.2-7,1.5c-2.2,2.6-1.7,6.1-1.8,8.1c-0.1,1.4-1.3,4.6-1.8,5.4
			c-0.1,0.2-0.1,0.4,0.1,0.4c0.9,0.3,3.1,0.6,5.6,0.7c-0.1,0.6-0.2,1.3-0.3,1.8c-0.1,0.4-0.3,0.7-0.7,0.8h0c-1,0.3-2.9,1-4.6,1.8
			c-1.3,0.6-2.5,1.2-3.1,1.8c-0.6,0.6-1.1,1.7-1.3,2.8h27.3C45.5,43.9,45.1,42.8,44.5,42.2z"/>
	</g>
</g>
</svg>
